X:161
T: Die Mordeltern
N: Q0085C
O: Mitteleuropa, Deutschland
N: Tonangabe zur Ballade (aus Pommern) verweist auf dieses geistliche
N: Lied.
R: Ballade, Habgier, Mord, Reue, Selbstmord; geistlich
M: 4/4
L: 1/8
K: G
G4 | G4_B4 | A4d4 | c3dc2_B2 | A4z2
_B2 | G4d4 | c4d4 | G3A_B2B2 | c4z2
_B2 | A2d2c2_B2 | c4z2
G2 | _B2B2c2c2 | d2d2_B2
d2 | c2_B2A2G2 | _B4A4 | G4

@@@ Tune index: 1216
